build/documents/FilePPTOutline.svg

<svg xmlns="http://www.w3.org/2000/svg" fill="none" viewBox="0 0 24 24" focusable="false"><path d="M0 0H24V24H0z"/><path fill="#74767B" fill-rule="evenodd" d="M5 11L5 6C5 4.34315 6.34315 3 8 3L13.042 3C13.8752 3 14.671 3.34655 15.2385 3.95662L18.1965 7.13629C18.7129 7.69141 19 8.42148 19 9.17966L19 11C20.6569 11 22 12.3431 22 14L22 18C22 19.6569 20.6569 21 19 21L5 21C3.34315 21 2 19.6569 2 18L2 14C2 12.3431 3.34315 11 5 11ZM13.042 4.3L8 4.3C7.06112 4.3 6.3 5.06112 6.3 6L6.3 11L17.7 11L17.7 9.17966C17.7 9.11913 17.6968 9.05892 17.6904 8.99925L15.2999 8.99926C14.223 8.99926 13.3499 8.12621 13.3499 7.04926L13.3499 4.32811C13.2491 4.30954 13.1461 4.3 13.042 4.3ZM14.6499 5.23254L16.9447 7.69926L15.2999 7.69926C14.9409 7.69926 14.6499 7.40824 14.6499 7.04926L14.6499 5.23254ZM5 12.3L19 12.3C19.9389 12.3 20.7 13.0611 20.7 14L20.7 18C20.7 18.9389 19.9389 19.7 19 19.7L5 19.7C4.06112 19.7 3.3 18.9389 3.3 18L3.3 14C3.3 13.0611 4.06112 12.3 5 12.3ZM6.68247 17.7586C6.68247 18.1176 6.39146 18.4086 6.03247 18.4086C5.67349 18.4086 5.38247 18.1176 5.38247 17.7586L5.38247 14.2413C5.38247 13.8823 5.67349 13.5913 6.03247 13.5913L7.35057 13.5913C8.34324 13.5913 9.14797 14.3961 9.14797 15.3887C9.14797 16.3814 8.34325 17.1861 7.35057 17.1861L6.68247 17.1861L6.68247 17.7586ZM11.6486 17.7586C11.6486 18.1176 11.3576 18.4086 10.9986 18.4086C10.6396 18.4086 10.3486 18.1176 10.3486 17.7586L10.3486 14.2413C10.3486 13.8823 10.6396 13.5913 10.9986 13.5913L12.3167 13.5913C13.3094 13.5913 14.1141 14.3961 14.1141 15.3887C14.1141 16.3814 13.3094 17.1861 12.3167 17.1861L11.6486 17.1861L11.6486 17.7586ZM17.9676 14.8941C18.3266 14.8941 18.6176 14.6031 18.6176 14.2441C18.6176 13.8851 18.3266 13.5941 17.9676 13.5941L15.5456 13.5941C15.1866 13.5941 14.8956 13.8851 14.8956 14.2441C14.8956 14.6031 15.1866 14.8941 15.5456 14.8941L16.1066 14.8941L16.1066 17.7614C16.1066 18.1203 16.3976 18.4114 16.7566 18.4114C17.1156 18.4114 17.4066 18.1203 17.4066 17.7614L17.4066 14.8941L17.9676 14.8941ZM6.68247 14.8913L6.68247 15.8861L7.35057 15.8861C7.62528 15.8861 7.84797 15.6634 7.84797 15.3887C7.84797 15.114 7.62528 14.8913 7.35057 14.8913L6.68247 14.8913ZM12.3167 14.8913L11.6486 14.8913L11.6486 15.8861L12.3167 15.8861C12.5914 15.8861 12.8141 15.6634 12.8141 15.3887C12.8141 15.114 12.5914 14.8913 12.3167 14.8913Z"/></svg>

<svg xmlns="http://www.w3.org/2000/svg" fill="none" viewBox="0 0 24 24" focusable="false"><path fill="#74767B" fill-rule="evenodd" d="M5 11V6c0-1.66 1.34-3 3-3h5.04c.83 0 1.63.34 2.19.95l2.96 3.18c.52.56.81 1.29.81 2.04V11c1.65 0 3 1.34 3 3v4c0 1.65-1.35 3-3 3H5c-1.66 0-3-1.35-3-3v-4c0-1.66 1.34-3 3-3m8.04-6.71H8c-.94 0-1.7.77-1.7 1.71v5h11.4V9.17c0-.06-.01-.12-.01-.18h-2.4c-1.07 0-1.95-.87-1.95-1.95V4.32q-.15-.03-.3-.03m1.6.94 2.3 2.46h-1.65c-.35 0-.65-.29-.65-.65zM5 12.3h14c.93 0 1.7.76 1.7 1.7v4c0 .93-.77 1.7-1.7 1.7H5c-.94 0-1.7-.77-1.7-1.7v-4c0-.94.76-1.7 1.7-1.7m1.03 6.1c.36 0 .65-.29.65-.65v-.57h.67c.99 0 1.79-.8 1.79-1.8 0-.99-.8-1.79-1.79-1.79H6.03c-.36 0-.65.29-.65.65v3.51c0 .36.29.65.65.65m5.61-.65c0 .36-.29.65-.65.65s-.65-.29-.65-.65v-3.51c0-.36.29-.65.65-.65h1.32c.99 0 1.8.8 1.8 1.79 0 1-.81 1.8-1.8 1.8h-.67zm6.32-2.86c.36 0 .65-.29.65-.65s-.29-.65-.65-.65h-2.42c-.36 0-.65.29-.65.65s.29.65.65.65h.56v2.87c0 .36.29.65.65.65s.65-.29.65-.65v-2.87zm-11.28.99v-.99h.67c.27 0 .49.22.49.49 0 .28-.22.5-.49.5zm5.63-.99h-.67v.99h.67a.495.495 0 1 0 0-.99"/></svg>
